X: 5432
T: Bullock On The Bonnet, The
R: reel
M: 4/4
K: Dmajor
|:f2df edBA|fAdf a3g|f2df edBA|(3 Bcd ed B3A:|
|:FBBA FADE|FBBA BcdA|FBBA FADe|1 fedf edBA:|2 fedf e2de:|

